svgs/light/album-circle-user.svg

<svg xmlns="http://www.w3.org/2000/svg" viewBox="0 0 576 512"><!--! Font Awesome Pro 6.4.0 by @fontawesome - https://fontawesome.com License - https://fontawesome.com/license (Commercial License) Copyright 2023 Fonticons, Inc. --><path d="M384 64H64C46.3 64 32 78.3 32 96V416c0 17.7 14.3 32 32 32H275.2c5.9 11.4 12.9 22.2 21 32H64c-35.3 0-64-28.7-64-64V96C0 60.7 28.7 32 64 32H384c35.3 0 64 28.7 64 64v96.7c-5.3-.5-10.6-.7-16-.7s-10.7 .2-16 .7V96c0-17.7-14.3-32-32-32zM224 96c69.3 0 128.3 44 150.5 105.6c-10.2 3.5-20 8-29.3 13.2C328.1 164.3 280.3 128 224 128c-70.7 0-128 57.3-128 128s57.3 128 128 128c11.2 0 22-1.4 32.4-4.1c.7 10.9 2.4 21.5 5 31.7c-12 2.9-24.5 4.4-37.4 4.4c-88.4 0-160-71.6-160-160s71.6-160 160-160zm0 136a24 24 0 1 1 0 48 24 24 0 1 1 0-48zM492 462.6c-7.8-9.1-19.4-14.6-31.8-14.6H403.8c-12.4 0-23.9 5.5-31.8 14.6c17.3 11 37.9 17.4 60 17.4s42.7-6.4 60-17.4zm24.3-20.8C533.5 422.1 544 396.2 544 368c0-61.9-50.1-112-112-112s-112 50.1-112 112c0 28.2 10.5 54.1 27.7 73.8c13.8-16.1 34.2-25.8 56.1-25.8h56.4c21.8 0 42.2 9.6 56.1 25.8zM288 368a144 144 0 1 1 288 0 144 144 0 1 1 -288 0zm144 0a24 24 0 1 0 0-48 24 24 0 1 0 0 48zm0-80a56 56 0 1 1 0 112 56 56 0 1 1 0-112z"/></svg>

<svg xmlns="http://www.w3.org/2000/svg" viewBox="0 0 576 512"><!--! Font Awesome Pro 6.3.0 by @fontawesome - https://fontawesome.com License - https://fontawesome.com/license (Commercial License) Copyright 2023 Fonticons, Inc. --><path d="M384 64H64C46.33 64 32 78.33 32 96V416C32 433.7 46.33 448 64 448H275.2C281 459.4 288.1 470.2 296.2 480H64C28.65 480 0 451.3 0 416V96C0 60.65 28.65 32 64 32H384C419.3 32 448 60.65 448 96V192.7C442.7 192.2 437.4 192 432 192C426.6 192 421.3 192.2 416 192.7V96C416 78.33 401.7 64 384 64V64zM224 96C293.3 96 352.3 140 374.5 201.6C364.3 205.1 354.5 209.6 345.2 214.8C328.1 164.3 280.3 128 224 128C153.3 128 96 185.3 96 256C96 326.7 153.3 384 224 384C235.2 384 246 382.6 256.4 379.9C257.1 390.7 258.8 401.3 261.4 411.6C249.4 414.5 236.9 416 223.1 416C135.6 416 63.1 344.4 63.1 256C63.1 167.6 135.6 96 223.1 96L224 96zM200 256C200 242.7 210.7 232 224 232C237.3 232 248 242.7 248 256C248 269.3 237.3 280 224 280C210.7 280 200 269.3 200 256zM376 344C376 313.1 401.1 288 432 288C462.9 288 488 313.1 488 344C488 374.9 462.9 400 432 400C401.1 400 376 374.9 376 344zM432 368C445.3 368 456 357.3 456 344C456 330.7 445.3 320 432 320C418.7 320 408 330.7 408 344C408 357.3 418.7 368 432 368zM576 368C576 447.5 511.5 512 432 512C352.5 512 288 447.5 288 368C288 288.5 352.5 224 432 224C511.5 224 576 288.5 576 368zM460.2 448H403.8C391.4 448 379.9 453.5 372 462.6C389.3 473.6 409.9 480 432 480C454.1 480 474.7 473.6 491.1 462.6C484.1 453.5 472.6 448 460.2 448H460.2zM544 368C544 306.1 493.9 256 432 256C370.1 256 320 306.1 320 368C320 396.2 330.5 422.1 347.7 441.8C361.6 425.6 381.9 416 403.8 416H460.2C482.1 416 502.4 425.6 516.3 441.8C533.5 422.1 544 396.2 544 368H544z"/></svg>
